X: 12683
T: Fathaby, The
R: jig
M: 6/8
K: Dmajor
|:d/e/|f2A AFA|B2B A2a|f2f fef|g2f ede|
f2A AFA|B2B A2a|aba agf|e3 d2:|
a|faa b2a|faa b2a|faa b2a|e2f gfe|
faa b2a|faa b2a|aba agf|e3 d2||

